icons/svg/nomad.svg

<svg xmlns="http://www.w3.org/2000/svg" viewBox="0 0 350 350"><switch><g><path fill="#fff" d="M59.962 59.962h230.075v230.075H59.962z"/><path d="M69.5 69.5h211v211h-211z"/><path fill="#aa8450" d="M79 79h192v192H79z"/><radialGradient id="nomad-a" cx="175" cy="175" r="96" gradientTransform="matrix(0 -1 1.1 0 -17.5 350)" gradientUnits="userSpaceOnUse"><stop offset="0" stop-color="#e4c8a0"/><stop offset=".963" stop-color="#e4c8a0" stop-opacity=".037"/><stop offset="1" stop-color="#e4c8a0" stop-opacity="0"/></radialGradient><path fill="url(#nomad-a)" d="M79 79h192v192H79z"/><g><path d="M85.75 264.167l69.938-51.968-19.438-16.323-50.5 68.291z"/><path d="M97.25 252.625l39.625-39-6.188-6.25a1312028.55 1312028.55 0 01-33.437 45.25z" fill="#fff"/><path d="M84.813 84.625L133.667 150l17.529-17.53z"/><path d="M96.667 96.042l39.083 40.324 6.188-5.929-45.271-34.395z" fill="#fff"/><g><path d="M199.833 132.607l65.334-47.982-47.5 65.375z"/><path d="M253 97l-39.417 38.833 6.292 5.229L253 97z" fill="#fff"/></g><g><path d="M200.833 216.914l64.334 47.253-46.148-65z"/><path d="M252.438 251.875l-44.313-34.25 6.125-4.938 38.188 39.188z" fill="#fff"/></g><g><path d="M217.642 137.049c-3.557-3.864-18.769-19.346-42.031-19.303-27.48.051-49.968 21.739-54.753 42.244-1.564 6.705-1.216 13.199-1.077 15.537.236 3.945 1.38 18.251 11.259 31.833 3.955 5.438 8.549 9.687 11.431 12.005l-1.681.634a40.379 40.379 0 008.625 6.333s6.671 3.637 13.542 3.667c0 0 1.484.211 1.708-.292.025-.056.018-.087.083-.552.071-.504.088-.532.078-.594-.086-.551-1.766-.708-1.766-.708-2.814-.264-5.442-1.327-5.438-1.354.007-.043 6.619 1.56 7.678.871.181.008.358.014.534.023 5.257.244 9.603 1.957 10.578 2.148 5.186 1.018 20.356-1.773 32.93-11.175 3.434-2.567 23.541-17.603 23.915-43.347.298-20.266-11.83-33.86-15.615-37.97zm-68.095 86.076c-.136.226-1.447-.324-2-.594a7.186 7.186 0 01-2.539-2.101l.117-.024c2.055-.371 4.64 2.357 4.422 2.719z"/><path d="M126.124 159.996c5.301-17.174 18.012-26.118 22.876-29.121 11.869-7.33 23.208-7.814 26-7.875 9.892-.215 17.155 2.613 18.875 3.313 6.993 2.845 11.419 6.714 15.25 10.063 3.067 2.681 6.446 5.684 9.458 10.708a38.478 38.478 0 013.792 8.542 27.219 27.219 0 00-1.75-6.708 26.973 26.973 0 00-1.5-3.125 48.756 48.756 0 015.917 10.708c1.569 3.95 6.954 19.031.458 35-2.738 6.731-6.525 11.011-8.917 13.667-13.368 14.843-31.394 19.47-40.75 21.083-7.739-1.121-13.841-3.247-18.042-5.042-8.485-3.625-11.938-6.421-13.25-7.667a31.744 31.744 0 01-5.299-6.595 31.426 31.426 0 013.008 6.387c.345 1.018.618 1.995.833 2.917-4.991-4.143-11.83-11.069-16.5-21.417a57.522 57.522 0 01-3.167-8.917c.036-2.262.14-5.58.463-9.578.453-5.581 1.071-12.536 2.245-16.343z" fill="#fff"/><path d="M198.958 140.125a34.291 34.291 0 00-13.093-6.503 34.197 34.197 0 00-12.199-.789 61.772 61.772 0 0125.292 7.292zM215.958 160.417c-2.526-4.305-7.012-8.38-7.333-8.125-.248.196 1.858 3.059 2.928 4.812 5.584 9.144 4.02 22.515.322 31.604-1.673 4.111-7.956 17.605-23.458 22.958-14.774 5.102-27.353-.839-29.819-2.07-14.701-7.333-19.291-21.387-20.462-25.188-3.475-11.275-1.376-20.947-.219-25.076a59.913 59.913 0 013.202-6.625c3.171-5.643 6.537-9.48 8.465-11.5 2.075-2.175 2.901-2.683 2.857-2.736-.119-.142-9.997 5.794-15.148 16.569-.676 1.414-1.081 2.515-1.75 4.333a79.514 79.514 0 00-4.167 16.667l1.75 9.917c.785 2.578 6.156 19.219 23.667 27.167 15.589 7.075 29.808 2.272 32.757 1.202 1.508-.547 18.038-6.851 25.474-24.442 1.467-3.472 7.631-18.055.934-29.467zm-73.209 38.764a47.088 47.088 0 01-6.7-10.939l.628.17c.09.188.182.376.274.563 2.218 4.499 5.116 9.096 8.907 13.63a46.53 46.53 0 01-3.109-3.424zM123.594 201.5c.256-.211 3.502 3.124 6.181 6.655 1.688 2.224 3.461 4.936 3.257 5.095-.232.18-2.961-2.988-3.375-3.469-3.072-3.566-6.343-8.05-6.063-8.281z"/></g><g><path d="M174.973 44.46l-1.637 7.509-1.159 7.881-.928 7.918-1.17 7.881-1.01 7.907-1.202 7.876-1.607 7.81-1.611 7.809-.784 7.941-1.248 7.869-1.516 7.83-1.347 7.854-.608 7.976-1.293 8.151-7.966 1.139-7.609 1.511-7.743.759-7.61 1.495-7.544 1.865-7.613 1.493-7.745.734-7.597 1.57-7.623 1.426-7.551 1.826-7.78.567-7.496 2.155-7.651 1.286-7.767.671-7.463 1.814 7.976 1.582 8.155 1.036 8.066 1.588 8.075 1.54 8.258.407 8.041 1.751 8.191.813 8.011 1.929 8.087 1.452 8.239.531 7.977 2.173 8.104 1.363 8.2.81 8.1 1.384 1.184 7.823 1.066 7.85 1.996 7.693.923 7.874 1.447 7.788 1.495 7.778 1.049 7.852 1.831 7.72.699 7.911 1.284 7.815 1.567 7.77 1.429 7.791 1.432 7.795 1.023 7.733 1.791-7.604.901-7.893 1.063-7.863 1.724-7.748 1.2-7.842 1.901-7.716.839-7.903 1.491-7.788 1.101-7.857 1.697-7.753 1.118-7.859 2.154-7.673.933-7.894 1.105-8.128 8.152-1.11 7.823-1.501 7.833-1.441 7.97-.626 7.786-1.732 7.877-1.186 7.909-.986 7.75-1.934 7.911-.975 7.824-1.51 7.818-1.557 8.017-.356 7.762-1.915 7.637-1.186-7.621-1.135-7.797-1.574-7.897-.94-7.88-1.054-7.816-1.47-7.784-1.66-7.948-.616-7.802-1.54-7.816-1.456-7.883-1.041-7.882-1.063-7.853-1.237-7.82-1.475-7.692-1.332-1.557-7.924-1.502-8.08-1.103-8.147-1.38-8.101-1.698-8.049-1.675-8.05-1.183-8.134-.883-8.185-1.915-8.008-.988-8.17-1.131-8.148-1.553-8.073-1.739-8.046z"/><path d="M175 175l16.179-16.002-16.177-94.993L175 175zM175 175l16.563 15.917L282.5 175zM175 175l-106.667-.063 90.417-16.188L175 175zM175 175v107.781l-15.259-92.805L175 175z" fill="#fff"/></g></g><g><path fill="#fff" d="M66.987 118.78l.217 1.508.736 1.624.32 1.86 1.027 1.579 1.473 1.249 2.185.493 2.106.28 1.686.506 1.941-.21 1.57.947 1.27 1.364 1.632.773 1.61.856 1.452 1.055 1.494.921 1.103 1.495 1.779.5 1.12 1.511 1.579.786 1.547.835 1.33 1.196 1.554.829 1.829.362 1.365 1.153 1.636.689 1.411 1.076 1.643.669 1.543.844 1.415 1.079 1.778.431 1.187 1.491 1.62.721 2.045.979-2.312-.337-1.49-1.383-1.938.114-1.597-1.026-1.74-.547-1.88-.083-1.782-.405-1.781-.411-1.531-1.247-1.829-.251-1.729-.582-1.893-.037-1.513-1.307-1.743-.536-1.779-.42-1.738-.552-1.978.244-1.751-.509-1.499-1.352-1.854-.169-1.638-.887-1.917.043-1.623-.94-1.786-.391-1.782-.41-1.897-.022-1.593-1.041-1.764-.467-1.773-.436-1.724-.592.262-1.795.793-1.658.21-1.813.703-1.681.384-1.77.334-1.781.851-1.645.42-1.74zM146.438 105l-15.98-26h7.99zM197.168 114.261l.468-2.019.498-1.684 1.318-1.433.543-1.689-.273-1.906.705-1.642.731-1.648-.136-2.02.491-1.883.736-1.846-.387-2.024.301-1.908.734-1.744 1.594-1.021 1.402-1.46.72-1.882 1.18-1.28-.066-1.717.047-1.658.934-1.764.608-1.76 1.256-1.409.772-1.771.821-1.737 1.418-1.303.96-1.628.797-1.697.892-1.634 1.425-1.442.145-1.953.348-1.871 1.058-1.599.928-1.632.604-1.789.673-1.785.81-1.521 1.081-1.358 1.115-1.319 1.239-1.215.677-1.612-.322 1.811.173 1.858-.15 1.831-.425 1.794-.398 1.795-.043 1.854-.217 1.828-.209 1.836-.751 1.716-.485 1.774-.98 1.639.35 2.003-.863 1.666-.803 1.606-.016 1.864-1.272 1.432-.276 1.784-.498 1.71-.478 1.724-.548 1.703-1 1.502-.904 1.538-1.13 1.419-.367 1.801-.555 1.718-1.4 1.258-.944 1.499-.908 1.517-.921 1.509-.326 1.897-1.594 1.076-.352 1.91-1.265 1.285-1.461 1.126-.554 1.801-1.4 1.161-.867 1.582-1.135 1.363-1.66.912-.619 1.81zM248 144.5l23-14.875v7.136l-23 7.739zM211.188 271l-5.604-24.583L221.313 271h-10.125zM79 211.667l27.5-8.542L79 220.417v-8.75zM123.408 300.724l1.353-1.292 1.034-1.472.83-1.616 1.039-1.464 1.145-1.393 1.224-1.346.993-1.502.626-1.733 1.035-1.474.916-1.545.859-1.578.487-1.787 1.164-1.406 1.232-1.381.216-1.916.947-1.533 1.153-1.437.728-1.647.726-1.647.904-1.568.703-1.656.296-1.824.437-1.759 1.193-1.466.477-1.744.905-1.59.226-1.824.541-1.715.36-1.774.302-1.782.935-1.604.034-1.858.765-1.695.084-1.866.796-1.696.22-1.829.523-1.766.076-1.85.283-1.808.46-1.777.377-1.523-.787 1.296-1.063 1.464-1.273 1.323-.396 1.884-1.538 1.166-.215 1.99-1.072 1.461-1.526 1.194-.407 1.862-.912 1.56-1.117 1.444-1.159 1.426-.808 1.626-.485 1.795-1.171 1.432-.965 1.545-.013 1.961-1.213 1.361-.798 1.569-.784 1.574-.393 1.737-1.083 1.459-.495 1.715.119 1.9-.772 1.611-.634 1.664-.017 1.832-.848 1.596-.297 1.791-.767 1.731-1.32 1.462-.304 1.954-1.215 1.477-.497 1.829-1.114 1.554-.25 1.876-.248 1.789-.642 1.737-.399 1.8.486 1.828zM233.359 196.577l1.561.904 1.333.9 1.1 1.605 1.425 1.14 1.635.806 1.535.971 1.848.41 1.295 1.427 1.902.26 1.456 1.139 1.724.581 1.538.995 1.688.651 1.757.475 1.828.237 1.697.711 1.745.592 1.456 1.248 1.544.997 2.042-.027 1.239 1.606 1.917.281 1.38 1.298 1.778.573 1.457 1.147 1.753.64 1.366 1.285 1.746.659 1.479 1.093 1.66.814 1.193 1.534 1.624.867 1.773.663 1.587 1.515-.427-2.191.704-1.868-.844-1.867-.065-1.867.432-1.837-1.769-.53-1.786-.342-1.881-.125-1.489-1.149-1.797-.611-1.416-1.231-1.71-.93-.958-1.719-1.788-.651-1.634-.889-1.615-.246-1.688.003-1.376-1.138-1.505-.802-1.75-.303-1.541-.982-1.716-.113-1.684.12-1.793.454-1.641-.762-1.585-.81-1.765-.215-1.723-.384-1.575-.802-1.572-.798-1.735-.374-1.701-.476-1.403-1.201-1.838-.147-1.495-.982-1.653-.598-1.673-.569z"/></g></g></switch></svg>

<svg xmlns="http://www.w3.org/2000/svg" viewBox="0 0 350 350"><switch><g><path fill="#fff" d="M59.962 59.962H290.037V290.037H59.962z"/><path d="M69.5 69.5H280.5V280.5H69.5z"/><path fill="#aa8450" d="M79 79H271V271H79z"/><radialGradient id="a" cx="175" cy="175" r="96" gradientTransform="matrix(0 -1 1.1 0 -17.5 350)" gradientUnits="userSpaceOnUse"><stop offset="0" stop-color="#e4c8a0"/><stop offset=".963" stop-color="#e4c8a0" stop-opacity=".037"/><stop offset="1" stop-color="#e4c8a0" stop-opacity="0"/></radialGradient><path fill="url(#a)" d="M79 79H271V271H79z"/><path d="M85.75,264.167c23.313-17.323,46.626-34.645,69.938-51.968c-6.479-5.441-12.959-10.882-19.438-16.323 C119.417,218.639,102.583,241.403,85.75,264.167z"/><path d="M97.25,252.625c13.208-13,26.417-26,39.625-39c-2.063-2.083-4.125-4.167-6.188-6.25 C119.542,222.458,108.396,237.542,97.25,252.625z" fill="#fff"/><path d="M84.813 84.625L133.667 150 151.196 132.47z"/><path d="M96.667,96.042c13.028,13.441,26.056,26.883,39.083,40.324 c2.063-1.976,4.125-3.952,6.188-5.929C126.847,118.972,111.757,107.507,96.667,96.042z" fill="#fff"/><path d="M199.833 132.607L265.167 84.625 217.667 150z"/><path d="M253,97c-13.139,12.944-26.278,25.889-39.417,38.833c2.097,1.743,4.194,3.486,6.292,5.229 C230.917,126.375,241.958,111.688,253,97z" fill="#fff"/><path d="M200.833 216.914L265.167 264.167 219.019 199.167z"/><path d="M252.438,251.875c-14.771-11.417-29.542-22.833-44.313-34.25 c2.042-1.646,4.083-3.292,6.125-4.938L252.438,251.875z" fill="#fff"/><path d="M217.642,137.049c-3.557-3.864-18.769-19.346-42.031-19.303c-27.48,0.051-49.968,21.739-54.753,42.244 c-1.564,6.705-1.216,13.199-1.077,15.537c0.236,3.945,1.38,18.251,11.259,31.833c3.955,5.438,8.549,9.687,11.431,12.005 c-0.56,0.211-1.12,0.423-1.681,0.634c3.268,3.134,6.397,5.118,8.625,6.333c0,0,6.671,3.637,13.542,3.667 c0,0,1.484,0.211,1.708-0.292c0.025-0.056,0.018-0.087,0.083-0.552c0.071-0.504,0.088-0.532,0.078-0.594 c-0.086-0.551-1.766-0.708-1.766-0.708c-2.814-0.264-5.442-1.327-5.438-1.354c0.007-0.043,6.619,1.56,7.678,0.871 c0.181,0.008,0.358,0.014,0.534,0.023c5.257,0.244,9.603,1.957,10.578,2.148c5.186,1.018,20.356-1.773,32.93-11.175 c3.434-2.567,23.541-17.603,23.915-43.347C233.555,154.753,221.427,141.159,217.642,137.049z M149.547,223.125 c-0.136,0.226-1.447-0.324-2-0.594c-1.152-0.563-1.967-1.359-2.539-2.101c0.039-0.008,0.082-0.017,0.117-0.024 C147.18,220.035,149.765,222.763,149.547,223.125z"/><path d="M126.124,159.996c5.301-17.174,18.012-26.118,22.876-29.121c11.869-7.33,23.208-7.814,26-7.875 c9.892-0.215,17.155,2.613,18.875,3.313c6.993,2.845,11.419,6.714,15.25,10.063c3.067,2.681,6.446,5.684,9.458,10.708 c1.99,3.319,3.127,6.366,3.792,8.542c-0.243-1.884-0.738-4.2-1.75-6.708c-0.47-1.165-0.984-2.207-1.5-3.125 c1.697,2.327,4.019,5.933,5.917,10.708c1.569,3.95,6.954,19.031,0.458,35c-2.738,6.731-6.525,11.011-8.917,13.667 c-13.368,14.843-31.394,19.47-40.75,21.083c-7.739-1.121-13.841-3.247-18.042-5.042c-8.485-3.625-11.938-6.421-13.25-7.667 c-2.558-2.427-4.248-4.859-5.299-6.595c1.053,1.71,2.144,3.84,3.008,6.387c0.345,1.018,0.618,1.995,0.833,2.917 c-4.991-4.143-11.83-11.069-16.5-21.417c-1.418-3.143-2.434-6.153-3.167-8.917c0.036-2.262,0.14-5.58,0.463-9.578 C124.332,170.758,124.95,163.803,126.124,159.996z" fill="#fff"/><path d="M198.958 140.125c-2.385-1.91-6.8-4.93-13.093-6.503-5.058-1.264-9.397-1.112-12.199-.789 3.782.25 8.573.915 13.917 2.542C192.149 136.765 195.959 138.504 198.958 140.125zM215.958 160.417c-2.526-4.305-7.012-8.38-7.333-8.125-.248.196 1.858 3.059 2.928 4.812 5.584 9.144 4.02 22.515.322 31.604-1.673 4.111-7.956 17.605-23.458 22.958-14.774 5.102-27.353-.839-29.819-2.07-14.701-7.333-19.291-21.387-20.462-25.188-3.475-11.275-1.376-20.947-.219-25.076 1.134-2.765 2.287-4.997 3.202-6.625 3.171-5.643 6.537-9.48 8.465-11.5 2.075-2.175 2.901-2.683 2.857-2.736-.119-.142-9.997 5.794-15.148 16.569-.676 1.414-1.081 2.515-1.75 4.333-2.491 6.771-3.611 12.613-4.167 16.667.583 3.306 1.167 6.611 1.75 9.917.785 2.578 6.156 19.219 23.667 27.167 15.589 7.075 29.808 2.272 32.757 1.202 1.508-.547 18.038-6.851 25.474-24.442C216.491 186.412 222.655 171.829 215.958 160.417zM142.749 199.181c-3.147-3.835-5.262-7.668-6.7-10.939.209.057.418.113.628.17.09.188.182.376.274.563 2.218 4.499 5.116 9.096 8.907 13.63C144.832 201.582 143.786 200.444 142.749 199.181zM123.594 201.5c.256-.211 3.502 3.124 6.181 6.655 1.688 2.224 3.461 4.936 3.257 5.095-.232.18-2.961-2.988-3.375-3.469C126.585 206.215 123.314 201.731 123.594 201.5z"/><path d="M174.973 44.46L173.336 51.969 172.177 59.85 171.249 67.768 170.079 75.649 169.069 83.556 167.867 91.432 166.26 99.242 164.649 107.051 163.865 114.992 162.617 122.861 161.101 130.691 159.754 138.545 159.146 146.521 157.853 154.672 149.887 155.811 142.278 157.322 134.535 158.081 126.925 159.576 119.381 161.441 111.768 162.934 104.023 163.668 96.426 165.238 88.803 166.664 81.252 168.49 73.472 169.057 65.976 171.212 58.325 172.498 50.558 173.169 43.095 174.983 51.071 176.565 59.226 177.601 67.292 179.189 75.367 180.729 83.625 181.136 91.666 182.887 99.857 183.7 107.868 185.629 115.955 187.081 124.194 187.612 132.171 189.785 140.275 191.148 148.475 191.958 156.575 193.342 157.759 201.165 158.825 209.015 160.821 216.708 161.744 224.582 163.191 232.37 164.686 240.148 165.735 248 167.566 255.72 168.265 263.631 169.549 271.446 171.116 279.216 172.545 287.007 173.977 294.802 175 302.535 176.791 294.931 177.692 287.038 178.755 279.175 180.479 271.427 181.679 263.585 183.58 255.869 184.419 247.966 185.91 240.178 187.011 232.321 188.708 224.568 189.826 216.709 191.98 209.036 192.913 201.142 194.018 193.014 202.17 191.904 209.993 190.403 217.826 188.962 225.796 188.336 233.582 186.604 241.459 185.418 249.368 184.432 257.118 182.498 265.029 181.523 272.853 180.013 280.671 178.456 288.688 178.1 296.45 176.185 304.087 174.999 296.466 173.864 288.669 172.29 280.772 171.35 272.892 170.296 265.076 168.826 257.292 167.166 249.344 166.55 241.542 165.01 233.726 163.554 225.843 162.513 217.961 161.45 210.108 160.213 202.288 158.738 194.596 157.406 193.039 149.482 191.537 141.402 190.434 133.255 189.054 125.154 187.356 117.105 185.681 109.055 184.498 100.921 183.615 92.736 181.7 84.728 180.712 76.558 179.581 68.41 178.028 60.337 176.289 52.291z"/><path d="M175 175c5.393-5.334 10.786-10.668 16.179-16.002-5.392-31.664-10.784-63.329-16.177-94.993C175.001 101.003 175.001 138.002 175 175zM175 175L191.563 190.917 282.5 175zM175 175c-35.556-.021-71.111-.042-106.667-.063 30.139-5.396 60.278-10.792 90.417-16.188L175 175zM175 175c0 35.927 0 71.854 0 107.781-5.086-30.935-10.173-61.87-15.259-92.805C164.827 184.984 169.914 179.992 175 175zM66.987 118.78L67.204 120.288 67.94 121.912 68.26 123.772 69.287 125.351 70.76 126.6 72.945 127.093 75.051 127.373 76.737 127.879 78.678 127.669 80.248 128.616 81.518 129.98 83.15 130.753 84.76 131.609 86.212 132.664 87.706 133.585 88.809 135.08 90.588 135.58 91.708 137.091 93.287 137.877 94.834 138.712 96.164 139.908 97.718 140.737 99.547 141.099 100.912 142.252 102.548 142.941 103.959 144.017 105.602 144.686 107.145 145.53 108.56 146.609 110.338 147.04 111.525 148.531 113.145 149.252 115.19 150.231 112.878 149.894 111.388 148.511 109.45 148.625 107.853 147.599 106.113 147.052 104.233 146.969 102.451 146.564 100.67 146.153 99.139 144.906 97.31 144.655 95.581 144.073 93.688 144.036 92.175 142.729 90.432 142.193 88.653 141.773 86.915 141.221 84.937 141.465 83.186 140.956 81.687 139.604 79.833 139.435 78.195 138.548 76.278 138.591 74.655 137.651 72.869 137.26 71.087 136.85 69.19 136.828 67.597 135.787 65.833 135.32 64.06 134.884 62.336 134.292 62.598 132.497 63.391 130.839 63.601 129.026 64.304 127.345 64.688 125.575 65.022 123.794 65.873 122.149 66.293 120.409zM146.438 105L130.458 79 138.448 79zM197.168 114.261L197.636 112.242 198.134 110.558 199.452 109.125 199.995 107.436 199.722 105.53 200.427 103.888 201.158 102.24 201.022 100.22 201.513 98.337 202.249 96.491 201.862 94.467 202.163 92.559 202.897 90.815 204.491 89.794 205.893 88.334 206.613 86.452 207.793 85.172 207.727 83.455 207.774 81.797 208.708 80.033 209.316 78.273 210.572 76.864 211.344 75.093 212.165 73.356 213.583 72.053 214.543 70.425 215.34 68.728 216.232 67.094 217.657 65.652 217.802 63.699 218.15 61.828 219.208 60.229 220.136 58.597 220.74 56.808 221.413 55.023 222.223 53.502 223.304 52.144 224.419 50.825 225.658 49.61 226.335 47.998 226.013 49.809 226.186 51.667 226.036 53.498 225.611 55.292 225.213 57.087 225.17 58.941 224.953 60.769 224.744 62.605 223.993 64.321 223.508 66.095 222.528 67.734 222.878 69.737 222.015 71.403 221.212 73.009 221.196 74.873 219.924 76.305 219.648 78.089 219.15 79.799 218.672 81.523 218.124 83.226 217.124 84.728 216.22 86.266 215.09 87.685 214.723 89.486 214.168 91.204 212.768 92.462 211.824 93.961 210.916 95.478 209.995 96.987 209.669 98.884 208.075 99.96 207.723 101.87 206.458 103.155 204.997 104.281 204.443 106.082 203.043 107.243 202.176 108.825 201.041 110.188 199.381 111.1 198.762 112.91zM248 144.5c7.667-4.958 15.333-9.917 23-14.875 0 2.379 0 4.758 0 7.136C263.333 139.341 255.667 141.92 248 144.5zM211.188 271c-1.868-8.194-3.736-16.389-5.604-24.583 5.243 8.194 10.486 16.389 15.729 24.583H211.188zM79 211.667c9.167-2.847 18.333-5.694 27.5-8.542-9.167 5.764-18.333 11.528-27.5 17.292V211.667zM123.408 300.724L124.761 299.432 125.795 297.96 126.625 296.344 127.664 294.88 128.809 293.487 130.033 292.141 131.026 290.639 131.652 288.906 132.687 287.432 133.603 285.887 134.462 284.309 134.949 282.522 136.113 281.116 137.345 279.735 137.561 277.819 138.508 276.286 139.661 274.849 140.389 273.202 141.115 271.555 142.019 269.987 142.722 268.331 143.018 266.507 143.455 264.748 144.648 263.282 145.125 261.538 146.03 259.948 146.256 258.124 146.797 256.409 147.157 254.635 147.459 252.853 148.394 251.249 148.428 249.391 149.193 247.696 149.277 245.83 150.073 244.134 150.293 242.305 150.816 240.539 150.892 238.689 151.175 236.881 151.635 235.104 152.012 233.581 151.225 234.877 150.162 236.341 148.889 237.664 148.493 239.548 146.955 240.714 146.74 242.704 145.668 244.165 144.142 245.359 143.735 247.221 142.823 248.781 141.706 250.225 140.547 251.651 139.739 253.277 139.254 255.072 138.083 256.504 137.118 258.049 137.105 260.01 135.892 261.371 135.094 262.94 134.31 264.514 133.917 266.251 132.834 267.71 132.339 269.425 132.458 271.325 131.686 272.936 131.052 274.6 131.035 276.432 130.187 278.028 129.89 279.819 129.123 281.55 127.803 283.012 127.499 284.966 126.284 286.443 125.787 288.272 124.673 289.826 124.423 291.702 124.175 293.491 123.533 295.228 123.134 297.028 123.62 298.856zM233.359 196.577L234.92 197.481 236.253 198.381 237.353 199.986 238.778 201.126 240.413 201.932 241.948 202.903 243.796 203.313 245.091 204.74 246.993 205 248.449 206.139 250.173 206.72 251.711 207.715 253.399 208.366 255.156 208.841 256.984 209.078 258.681 209.789 260.426 210.381 261.882 211.629 263.426 212.626 265.468 212.599 266.707 214.205 268.624 214.486 270.004 215.784 271.782 216.357 273.239 217.504 274.992 218.144 276.358 219.429 278.104 220.088 279.583 221.181 281.243 221.995 282.436 223.529 284.06 224.396 285.833 225.059 287.42 226.574 286.993 224.383 287.697 222.515 286.853 220.648 286.788 218.781 287.22 216.944 285.451 216.414 283.665 216.072 281.784 215.947 280.295 214.798 278.498 214.187 277.082 212.956 275.372 212.026 274.414 210.307 272.626 209.656 270.992 208.767 269.377 208.521 267.689 208.524 266.313 207.386 264.808 206.584 263.058 206.281 261.517 205.299 259.801 205.186 258.117 205.306 256.324 205.76 254.683 204.998 253.098 204.188 251.333 203.973 249.61 203.589 248.035 202.787 246.463 201.989 244.728 201.615 243.027 201.139 241.624 199.938 239.786 199.791 238.291 198.809 236.638 198.211 234.965 197.642z" fill="#fff"/></g></switch></svg>
